X: 642
T: Red Joak
M:4/4
L:1/4
S: 8: MCJLSH3 http://www.cpartington.plus.com/links/Walsh.abc
Z: Pete Stewart 2004
B: Walsh "Third Book of the most Celebrated jiggs, Lancashire hornpipes, ..."
K:G
b/a/ | g>agB | d/B/d/e/db/a/ | g>agB | A2Ab/a/ | g>agB | d/B/d/e/ db/a/ | gedB | G2G ||
e | dGB/c/d/B/ | dBg>e | dGB/c/d/B/ | A2Ae | dGB/c/d/B/ | dGg>a | b/a/g/e/ g/e/d/B/ | G2G ||
D | G/A/B/G/ B/c/d/B/ | G/A/B/G/ B/c/d/e/ | dBc/B/A/G/ | A2AD | G/A/B/G/ B/c/d/B/ |
G/A/B/G/ B/c/d/e/ | dB d/B/A/G/ | G2G ||

%%sep 1 1 500
%%sep 1 1 500
